X:127
T:The Skylark's Ascension
C:Archibald Lindsay
Z:robin.beech@mcgill.ca
S:Keep It Up: On Safari
M:6/8
L:1/8
R:jig
K:A
efg | a3 faa | fee c2B | AAA A2B | cee ecA |
f3 fec |eff c2B | Aaa fec | e3 ::
efg | a3 afe | f3 f2e | c3 cef | ecB c2B |
a3 afe | f3 f2e | Aaa fec | e3 ::
e2a | AAA A2c | ecB c2e | f3 f2 e | cfe c2B |
AAA A2B | cee c2B | Aaa fec | e3 :|
efg | aAa fdf | eca c3 | dff cee | Acc B2g |1
aAa fdf |eca c3 | Aaa fec | e3 :|2
a2f ecA | cff c2B | Aaa fec | e3 |]
